X:1
T:Farewell my own true love
B:Singing Together, Summer 1978, BBC Publications
F:http://www.folkinfo.org/songs
M:4/4
K:F
C2|A3 G A2 F2|D6 C2|F3 G A2 F2|c6 c2|
w:Fare-well my own true love, Fare-well a litt-le while, I'm
d3 c d2 AB|cd F4 FG|A3 F D2 C2|F6|]
w:goin' a-way but I'll come a-gain, Though I go ten thou-sand mile.
W:Farewell my own true love,
W:Farewell a little while,
W:I'm goin' away but I'll come again,
W:Though I go ten thousand mile.
W:
W:Ten Thousand mile, my love,
W:Through England, France and Spain;
W:My roving mind will never rest
W:Till I see your face again.
W:
W:Oh don't you see that dove
W:That flies from vine to vine.
W:A mourning for his own true love,
W:Just as I mourn for mine.
